X:40
T: Controversial
C: B.McComiskey
Z: B.Black
R: reel
M: 4/4
L: 1/8
K: G
GA | B3 e dBAG | gfgb a2 ge | d2 Bd gedB |\
A2 BG AGEG |
B3 e dBAG | gfgb a2 ge | d2 Bd gedB | GBAF G2 :|
GA | B3 d A2 BA | GEDE GABd | gaba gedB |\
A2 BG AGEG |
B3 d A2 BA | GEDE GABd | gaba gedB |\
GBAF G2 :|
